X:1
T:Amazing Grace
T:Amazing Grace
T:(Intermediate Piano)
T:Original Song by John Newton
T:Notes by Michael Kravchuk
T:Lyrics by Xx_Fanboy_xX
C:Song by John Newton
Z:Lyrics by Xx_Fanboy_xX
%%score { 1 | 2 }
L:1/8
Q:1/4=90
M:3/4
K:F
V:1 treble nm="Piano" snm="Pno."
V:2 bass 
V:1
"^\n" z4 C2 | [CF]4 ([CA]F) | [CA]4 [EG]2 | [DF]4 D2 | C4 C2 | [CF]4 ([CA]F) | [CA]4 G2 | [EGc]6- | %8
w: A-|ma- zi- ng|Grace, how|sweet the|sound, that|saved a _|wretch like|me.|
 [EGc]4 A2 | ([Fc]3 A) ([Fc]A) | F4 C2 | (D3 F) (FD) | C4 C2 | [CF]4 ([CA]F) | [CA]4 [EG]2 | F6- | %16
w: _ I|once _ was _|lost but|now _ I'm _|found. T'was|blind but _|now I|see.|
 F4 c2 | [cf]4 ([ca]f) | [ca]4 [eg]2 | [df]4 d2 | c4 c2 | [cf]4 ([ca]f) | [ca]4 g2 | [egc']6- | %24
w: _ T'was|Grace That _|taught my|heart to|fear, and|Grace, my _|fears re-|leaved.|
 [egc']4 A2 | ([Fc]3 A) ([Fc]A) | F4 C2 | (D3 F) (FD) | C4 C2 | [CF]4 ([CA]F) | [CA]4 [EG]2 | F6- | %32
w: _ How|pre- * cious _|did that|gra- * * ce|apear the|hour I _|first be-|leaved.|
 F4 z2 |] %33
w: _|
V:2
 z6 | F,,2 A,,2 C,2 | F,,2 A,,2 C,2 | F,,2 B,,2 D,2 | F,,2 A,,2 C,2 | F,,2 A,,2 C,2 | %6
 A,,2 C,2 A,,2 | E,,2 G,,2 C,2 | E,,2 B,,2 C,2 | F,,2 A,,2 C,2 | F,,2 A,,2 C,2 | F,,2 B,,2 D,2 | %12
 F,,2 A,,2 C,2 | A,,2 C,2 A,,2 | F,,2 A,,2 B,,2 | [F,,C,]2 A,,2 G,,2 | F,,6 | %17
 [F,,A,,C,]4 [F,,A,,C,]2 | [F,,A,,C,]4 [F,,A,,C,]2 | [F,,B,,D,]4 [F,,B,,D,]2 | %20
 [F,,A,,C,]4 [F,,A,,C,]2 | [F,,A,,C,]4 [F,,A,,C,]2 | [F,,A,,C,]4 [F,,A,,C,]2 | %23
 [E,,G,,C,]4 [E,,G,,C,]2 | [E,,B,,C,]4 [E,,B,,C,]2 | [F,,A,,C,]4 [F,,A,,C,]2 | %26
 [F,,A,,C,]4 [F,,A,,C,]2 | [F,,B,,D,]4 [F,,B,,D,]2 | [F,,A,,C,]4 [F,,A,,C,]2 | %29
 [F,,A,,C,]4 [F,,A,,C,]2 | [F,,A,,C,]4 [G,,B,,C,]2 | [F,,A,,C,]4 C,,2 | F,,,6 |] %33

